assets/bank-tab/Asset/Refer Credit Card.svg

<svg width="24" height="24" viewBox="0 0 24 24" fill="none" xmlns="http://www.w3.org/2000/svg">
<path d="M0.349669 3.9805C0.217808 4.65158 0.151878 4.98712 0.362829 5.24356C0.57378 5.49999 0.951245 5.49999 1.70618 5.49999H20.7332C21.4974 5.49999 21.8795 5.49999 22.0906 5.2404C22.3016 4.9808 22.2308 4.64131 22.0892 3.96232C21.9927 3.50001 21.8504 3.17737 21.5856 2.92008C21.093 2.44138 20.3708 2.39162 18.9263 2.29211C13.2817 1.90321 9.17025 1.9028 3.53207 2.28986C2.07156 2.39012 1.34131 2.44025 0.846704 2.92726C0.581512 3.18838 0.441245 3.51444 0.349669 3.9805Z" fill="#785103"/>
<path fill-rule="evenodd" clip-rule="evenodd" d="M22.4914 8.81315C22.4779 8.19512 22.4711 7.88611 22.2661 7.68558C22.0612 7.48505 21.744 7.48505 21.1098 7.48505H1.38819C0.748227 7.48505 0.428244 7.48505 0.22293 7.68745C0.0176153 7.88985 0.0131453 8.2025 0.00420525 8.8278C-0.0171086 10.3186 0.0427684 11.7767 0.179949 13.4022C0.300053 14.8253 0.360104 15.5369 0.849693 16.0228C1.33928 16.5086 2.06403 16.5642 3.51354 16.6754C6.06728 16.8714 8.30713 16.9785 10.5163 16.9971C10.7868 16.9994 11 16.7705 11 16.5C11 12.3579 14.3579 9 18.5 9C19.492 9 20.439 9.19259 21.3057 9.54243C21.8499 9.76209 22.5042 9.39986 22.4914 8.81315ZM2.44217 12.4477C2.44217 11.8996 2.88654 11.4552 3.4347 11.4552H5.3471C5.89526 11.4552 6.33963 11.8996 6.33963 12.4477C6.33963 12.9959 5.89526 13.4402 5.3471 13.4402H3.4347C2.88654 13.4402 2.44217 12.9959 2.44217 12.4477Z" fill="#785103"/>
<path d="M18.6196 14.0335C18.6196 15.1565 17.7163 16.0669 16.602 16.0669C15.4876 16.0669 14.5843 15.1565 14.5843 14.0335C14.5843 12.9104 15.4876 12 16.602 12C17.7163 12 18.6196 12.9104 18.6196 14.0335Z" fill="#785103"/>
<path d="M20.9515 19.6737C21.0459 19.9035 21.122 20.1399 21.1795 20.3806C21.3301 21.0123 20.8521 21.582 20.2159 21.6871C17.6691 22.1075 15.7949 22.1051 13.0091 21.6751C12.3636 21.5754 11.8738 21.0015 12.0289 20.3622C12.0858 20.1278 12.1604 19.8976 12.2525 19.6737C12.4891 19.0981 12.8358 18.575 13.273 18.1344C13.7102 17.6938 14.2292 17.3443 14.8003 17.1059C15.3715 16.8675 15.9837 16.7447 16.602 16.7447C17.2202 16.7447 17.8324 16.8675 18.4036 17.1059C18.9748 17.3443 19.4938 17.6938 19.9309 18.1344C20.3681 18.575 20.7149 19.0981 20.9515 19.6737Z" fill="#785103"/>
<path d="M21.9135 15.4899C21.9135 16.2943 21.2665 16.9464 20.4683 16.9464C19.6702 16.9464 19.0232 16.2943 19.0232 15.4899C19.0232 14.6855 19.6702 14.0335 20.4683 14.0335C21.2665 14.0335 21.9135 14.6855 21.9135 15.4899Z" fill="#785103"/>
<path d="M22.3142 20.7522C22.0847 20.7759 21.9024 20.5534 21.8475 20.3276C21.7907 20.0932 21.716 19.8631 21.624 19.6391C21.3874 19.0635 21.0406 18.5404 20.6034 18.0998C20.3728 17.8673 20.444 17.4597 20.7692 17.4328C20.8519 17.426 20.935 17.4225 21.0183 17.4225C21.4189 17.4225 21.8155 17.5021 22.1856 17.6566C22.5557 17.811 22.8919 18.0375 23.1752 18.323C23.4584 18.6084 23.6831 18.9473 23.8364 19.3203C23.896 19.4654 23.9444 19.6145 23.9813 19.7664C24.0818 20.1806 23.7644 20.5525 23.3462 20.617C22.9808 20.6734 22.6397 20.7184 22.3142 20.7522Z" fill="#785103"/>
</svg>

<svg xmlns="http://www.w3.org/2000/svg" width="24" height="24" fill="none" viewBox="0 0 24 24"><path fill="#785103" d="M.35 3.98c-.132.672-.198 1.007.013 1.264.21.256.588.256 1.343.256h19.027c.764 0 1.146 0 1.358-.26.21-.26.14-.599-.002-1.278-.096-.462-.239-.785-.503-1.042-.493-.479-1.215-.528-2.66-.628-5.644-.389-9.756-.39-15.394-.002-1.46.1-2.19.15-2.685.637-.265.261-.406.587-.497 1.054"/><path fill="#785103" fill-rule="evenodd" d="M22.491 8.813c-.013-.618-.02-.927-.225-1.127s-.522-.2-1.156-.2H1.388c-.64 0-.96 0-1.165.201-.205.203-.21.516-.219 1.14-.021 1.492.039 2.95.176 4.575.12 1.423.18 2.135.67 2.62.49.487 1.214.542 2.664.653 2.553.196 4.793.303 7.002.322A.49.49 0 0 0 11 16.5a7.5 7.5 0 0 1 10.306-6.958c.544.22 1.198-.142 1.185-.729M2.442 12.448c0-.548.445-.993.993-.993h1.912a.993.993 0 0 1 0 1.985H3.435a.99.99 0 0 1-.993-.992" clip-rule="evenodd"/><path fill="#785103" d="M18.62 14.034a2.026 2.026 0 0 1-2.018 2.033 2.026 2.026 0 0 1-2.018-2.033c0-1.124.904-2.034 2.018-2.034s2.018.91 2.018 2.034m2.332 5.64q.141.345.227.707c.151.631-.327 1.201-.963 1.306-2.547.42-4.421.418-7.207-.012-.645-.1-1.135-.674-.98-1.313a4.76 4.76 0 0 1 1.244-2.228 4.7 4.7 0 0 1 3.329-1.39 4.68 4.68 0 0 1 3.329 1.39c.437.441.784.964 1.02 1.54m.963-4.184a1.45 1.45 0 0 1-1.446 1.456 1.45 1.45 0 0 1-1.445-1.456 1.45 1.45 0 0 1 1.445-1.457 1.45 1.45 0 0 1 1.445 1.457m.401 5.262c-.23.024-.412-.199-.466-.424a4.77 4.77 0 0 0-1.245-2.228c-.23-.233-.159-.64.166-.667a3.04 3.04 0 0 1 1.417.224 3.05 3.05 0 0 1 1.65 1.663 3 3 0 0 1 .145.446c.1.415-.217.787-.635.851-.365.056-.706.101-1.032.135"/></svg>
